stretch-to-page.svg

<svg fill="currentColor" viewBox="0 0 24 24"><path d="M20 2H4c-1.11 0-2 .89-2 2v16c0 1.11.89 2 2 2h16c1.11 0 2-.89 2-2V4c0-1.11-.89-2-2-2M9 19H5v-4l1.29 1.29 1.54-1.54 1.42 1.42-1.54 1.54m.12-8.46L6.29 7.71 5 9V5h4L7.71 6.29l1.54 1.54M19 19h-4l1.29-1.29-1.54-1.54 1.42-1.42 1.54 1.54L19 15m0-6-1.29-1.29-1.54 1.54-1.42-1.42 1.54-1.54L15 5h4"/></svg>

<svg  viewBox="0 0 24 24" fill="currentColor"><path  d="M20,2H4C2.89,2 2,2.89 2,4V20C2,21.11 2.89,22 4,22H20C21.11,22 22,21.11 22,20V4C22,2.89 21.11,2 20,2M9,19H5V15L6.29,16.29L7.83,14.75L9.25,16.17L7.71,17.71M7.83,9.25L6.29,7.71L5,9V5H9L7.71,6.29L9.25,7.83M19,19H15L16.29,17.71L14.75,16.17L16.17,14.75L17.71,16.29L19,15M19,9L17.71,7.71L16.17,9.25L14.75,7.83L16.29,6.29L15,5H19"/></svg>
